X:1
T:Era scampato
T:Giovanni Animuccia
T:Source : Primo libro delle Laude spirituali a tre voci---Roma---A.Gardano---1583. Editor : André Vierendeels (21/11/17). Notes : Original clefs : C1, C2, F4 Editorial accidentals above the staff
T:Era scampato
T:©
T:©
C:Giovanni Animuccia
Z:©
%%score [ 1 2 3 ]
L:1/8
Q:1/4=120
M:4/4
K:F
V:1 treble nm="Soprano" snm="S"
V:2 treble nm="Alto" snm="A"
V:3 bass nm="Bass" snm="B"
V:1
"^1)" z2 B2 A2 B2 | c3 B A2 B2 | G2 F2 G4 |[M:2/4] F4 ::[M:4/4] z2 d2 d2 d2 | d3 d d2 d2 | %6
w: E- ra scam-|pa- to per mia|bo- na sor-|te,|dal- le man|cru- de d'un em-|
w: O dol- ce|li- ber- tà co-|me t'ho per-|sa,|pur sei pre-|cio- sa piu ch'ar-|
 c2 c2 B4 | A2 A2 B3 A | B2 c2 d4- | d2 d2 _e2 d2 | c4 B4 | z2 d2 d2 d2 | c3 B A3 A | B2 A2 B4 | %14
w: pio ti- ran-|no, ma per mia|col- pa non|_ vo- ler fug-|gi- ro,|son pur tor-|na- to mi- se-|ro'a ser- vi-|
w: den- te cuo-|ro, hor e- co-|mo- so ma|_ ha- gio u-|ti- le,|son pur tor-|na- to mi- se-|ro'a ser- vi-|
 G2 G4 c2 | A2 G2 A4 | G8 :| %17
w: re, mi- se-|ro'a ser- vi-|re.|
w: re, mi- se-|ro'a ser- vi-|re.|
V:2
"^2)""^1)" z2 G2 F2 G2 | A3 G F2 D2 | E2 F4 E2 |[M:2/4] F4 ::[M:4/4] z2 B2 B2 B2 | B3 B B2 B2 | %6
w: E- ra scam-|pa- to per mia|bo- na sor-|te,|dal- le man|cru- de d'un em-|
w: Quan- do ti|pen- so'al mio fe-|li- ce sta-|to,|li- be- ro'e|sciol- to co- me|
 A2 A2 G4 |"^-natural""^-natural" ^F2 F2 G3 F | G2 A2 B4- | B2 B2 G2 B2- | B2 A2 B4 | z2 B2 B2 B2 | %12
w: pio ti- ran-|no, ma per mia|col- pa non|_ vo- ler fug-|* gi- ro,|son pur tor-|
w: mi tro- va-|va, sent' un' hor-|ro- re che|_ mi fa mo-|* ri- re,|d'es- ser tor-|
 A2 G2 F3 F | G2 F2 G4 | E2 E4 E2 |"^#" F2 G4 F2 | G8 :| %17
w: na- to mi- se-|ro'a ser- vi-|re, mi- se-|ro'a ser- vi-|re.|
w: na- to mi- se-|ro'a ser- vi-|re, mi- se-|ro'a ser- vi-|re;|
V:3
"^3)""^1)""^4)" z2 G,2 D,2 G,2 | F,3 G, D,2 B,,2 | C,2 D,2 C,4 |[M:2/4] F,,4 :: %4
w: E- ra scam-|pa- to per mia|bo- na sor-|te,|
w: Que- sto ti-|ran- no piu ch'un|ti- gre fie-|ro,|
[M:4/4] z2 B,,2 B,,2 B,,2 | B,,3 B,, B,,2 B,,2 | F,2 F,2 G,4 | D,4 z2 D,2 | G,3 D, G,2 F,2 | %9
w: dal- le man|cru- de d'un em-|pio ti- ran-|no ma|per mia col- pa|
w: so- lo'è' il|pec- ca- t'oc- ch'il|gran di- let-|to quan-|to'il cru- del mi|
 B,,2 B,,2 C,2 B,,2 | F,4 B,,4 | z2 B,,2 B,,2 B,,2 | C,2 C,2 D,3 D, | G,,2 D,2 G,,4 | C,2 C,4 C,2 | %15
w: non vo- ler fug-|gi- ro,|son pur tor-|na- to mi- ser-|ro'a ser- vi-|re, mi- se-|
w: stra- tia, no'l so|di- re,|et io lo|vo- glio mi- se-|ro ser- vi-|re, mi- se-|
 D,2 _E,2 D,4 | G,,8 :| %17
w: ro'a ser- vi-|re.|
w: ro ser- vi-|re.|

